X:1
T:Pattonio, The Pride of the Plains
M:3/4
L:1/4
K:D
 F/2F/2| D F3/2 F/2| F E F| G F3/2 C/2| D2 F/2E/2| D F3/2 G/2| A E G|\
 G F E| D2 F/2E/2| D F A| d B B| G G B| A2 F/2E/2| D F3/2 G/2| A E3/2 F/2|\
 G F C| D2||
